;FLAVOR:Marlin
;TIME:8881
;Filament used: 3.99523m
;Layer height: 0.12
;MINX:79.701
;MINY:84.08
;MINZ:0.12
;MAXX:155.299
;MAXY:159.671
;MAXZ:9.96
;Generated with Cura_SteamEngine 4.6.2
M140 S50
M105
M190 S50
M104 S200
M105
M109 S200
M82 ;absolute extrusion mode
; Ender 3 Custom Start G-code
G92 E0 ; Reset Extruder
G28 ; Home all axes
G1 Z2.0 F3000 ; Move Z Axis up little to prevent scratching of Heat Bed
G1 X0.1 Y20 Z0.3 F5000.0 ; Move to start position
G1 X0.1 Y200.0 Z0.3 F1500.0 E15 ; Draw the first line
G1 X0.4 Y200.0 Z0.3 F5000.0 ; Move to side a little
G1 X0.4 Y20 Z0.3 F1500.0 E30 ; Draw the second line
G92 E0 ; Reset Extruder
G1 Z2.0 F3000 ; Move Z Axis up little to prevent scratching of Heat Bed
G1 X5 Y20 Z0.3 F5000.0 ; Move over to prevent blob squish
G92 E0
G92 E0
G1 F2700 E-5
;LAYER_COUNT:83
;LAYER:0
M107
G0 F6000 X91.554 Y94.387 Z0.12
;TYPE:SKIRT
G1 F2700 E0
G1 F1200 X92.491 Y93.532 E0.02531
G1 X93.46 Y92.706 E0.05072
G1 X94.468 Y91.903 E0.07644
G1 X95.496 Y91.141 E0.10198
G1 X96.536 Y90.423 E0.1272
G1 X97.619 Y89.727 E0.15289
G1 X98.708 Y89.079 E0.17818
G1 X99.828 Y88.462 E0.20369
G1 X100.97 Y87.881 E0.22926
G1 X102.132 Y87.341 E0.25484
G1 X103.303 Y86.845 E0.28021
G1 X104.49 Y86.386 E0.30561
G1 X105.694 Y85.968 E0.33104
G1 X106.926 Y85.585 E0.35679
G1 X108.154 Y85.25 E0.38219
G1 X109.383 Y84.958 E0.4074
G1 X110.38 Y84.752 E0.42772
G1 X110.652 Y84.701 E0.43324
G1 X111.912 Y84.492 E0.45873
G1 X113.162 Y84.326 E0.48389
G1 X114.169 Y84.223 E0.50409
G1 X114.437 Y84.201 E0.50946
G1 X115.721 Y84.118 E0.53514
G1 X116.995 Y84.08 E0.56057
G1 X118.266 Y84.084 E0.58594
G1 X119.541 Y84.132 E0.6114
G1 X120.817 Y84.223 E0.63693
G1 X122.088 Y84.356 E0.66243
G1 X123.354 Y84.532 E0.68794
G1 X124.603 Y84.75 E0.71324
G1 X125.867 Y85.014 E0.73901
G1 X127.097 Y85.315 E0.76428
G1 X128.325 Y85.66 E0.78973
G1 X129.545 Y86.047 E0.81528
G1 X130.752 Y86.476 E0.84084
G1 X131.934 Y86.941 E0.86619
G1 X133.107 Y87.449 E0.8917
G1 X134.261 Y87.995 E0.91717
G1 X135.394 Y88.58 E0.94262
G1 X136.519 Y89.209 E0.96834
G1 X137.594 Y89.86 E0.99342
G1 X138.452 Y90.414 E1.0138
G1 X138.681 Y90.568 E1.01931
G1 X139.712 Y91.292 E1.04445
G1 X140.733 Y92.059 E1.06993
G1 X141.729 Y92.862 E1.09547
G1 X142.699 Y93.7 E1.12105
G1 X143.643 Y94.573 E1.14671
G1 X144.533 Y95.456 E1.17172
G1 X145.231 Y96.188 E1.19191
G1 X145.418 Y96.392 E1.19743
G1 X146.268 Y97.355 E1.22306
G1 X147.075 Y98.336 E1.24841
G1 X147.851 Y99.345 E1.27382
G1 X148.443 Y100.165 E1.294
G1 X148.597 Y100.387 E1.29939
G1 X149.304 Y101.448 E1.32483
G1 X149.978 Y102.537 E1.35039
G1 X150.61 Y103.639 E1.37574
G1 X151.087 Y104.533 E1.39597
G1 X151.213 Y104.781 E1.40152
G1 X151.763 Y105.915 E1.42667
G1 X152.282 Y107.076 E1.45205
G1 X152.769 Y108.274 E1.47785
G1 X153.12 Y109.224 E1.49806
G1 X153.207 Y109.474 E1.50335
G1 X153.601 Y110.677 E1.52861
G1 X153.96 Y111.904 E1.55412
G1 X154.275 Y113.137 E1.57952
G1 X154.496 Y114.12 E1.59962
G1 X154.553 Y114.399 E1.60531
G1 X154.781 Y115.64 E1.63049
G1 X154.972 Y116.91 E1.65612
G1 X155.118 Y118.182 E1.68167
G1 X155.221 Y119.444 E1.70694
G1 X155.282 Y120.726 E1.73255
G1 X155.299 Y122.001 E1.75799
G1 X155.273 Y123.273 E1.78338
G1 X155.204 Y124.56 E1.8091
G1 X155.092 Y125.831 E1.83457
G1 X154.936 Y127.096 E1.86
G1 X154.739 Y128.35 E1.88533
G1 X154.498 Y129.614 E1.91101
G1 X154.217 Y130.855 E1.93641
G1 X153.963 Y131.835 E1.95661
G1 X153.893 Y132.085 E1.96179
G1 X153.529 Y133.306 E1.98722
G1 X153.123 Y134.516 E2.01269
G1 X152.772 Y135.466 E2.0329
G1 X152.673 Y135.719 E2.03832
G1 X152.184 Y136.902 E2.06386
G1 X151.657 Y138.065 E2.08934
G1 X151.09 Y139.209 E2.11482
G1 X150.484 Y140.337 E2.14038
G1 X149.851 Y141.423 E2.16546
G1 X149.167 Y142.515 E2.19118
G1 X148.449 Y143.576 E2.21674
G1 X147.702 Y144.604 E2.2421
G1 X146.917 Y145.612 E2.2676
G1 X146.269 Y146.393 E2.28785
G1 X146.093 Y146.597 E2.29323
G1 X145.252 Y147.536 E2.31838
G1 X144.358 Y148.474 E2.34424
G1 X143.45 Y149.358 E2.36953
G1 X142.507 Y150.22 E2.39503
G1 X141.541 Y151.044 E2.42036
G1 X140.75 Y151.679 E2.44061
G1 X140.526 Y151.852 E2.44626
G1 X139.512 Y152.603 E2.47144
G1 X138.688 Y153.178 E2.49149
G1 X138.467 Y153.326 E2.4968
G1 X137.378 Y154.026 E2.52263
G1 X136.297 Y154.668 E2.54772
G1 X135.161 Y155.296 E2.57362
G1 X134.032 Y155.868 E2.59888
G1 X133.114 Y156.299 E2.61912
G1 X132.872 Y156.407 E2.62441
G1 X131.706 Y156.903 E2.64969
G1 X130.769 Y157.27 E2.66978
G1 X130.503 Y157.368 E2.67543
G1 X129.296 Y157.787 E2.70093
G1 X128.09 Y158.159 E2.72612
G1 X126.848 Y158.5 E2.75182
G1 X125.606 Y158.795 E2.77729
G1 X124.349 Y159.048 E2.80288
G1 X123.095 Y159.257 E2.82825
G1 X121.828 Y159.426 E2.85376
G1 X120.57 Y159.549 E2.87899
G1 X119.279 Y159.633 E2.9048
G1 X118.005 Y159.671 E2.93024
G1 X116.732 Y159.667 E2.95564
G1 X115.452 Y159.619 E2.9812
G1 X114.19 Y159.528 E3.00645
G1 X112.908 Y159.395 E3.03218
G1 X111.649 Y159.219 E3.05754
G1 X110.4 Y159.001 E3.08285
G1 X109.136 Y158.738 E3.10861
G1 X107.896 Y158.434 E3.13409
G1 X106.676 Y158.091 E3.15938
G1 X105.71 Y157.789 E3.17958
G1 X105.449 Y157.702 E3.18507
G1 X104.248 Y157.275 E3.2105
G1 X103.063 Y156.809 E3.23592
G1 X101.889 Y156.3 E3.26145
G1 X100.971 Y155.869 E3.28169
G1 X100.736 Y155.753 E3.28692
G1 X99.607 Y155.171 E3.31227
G1 X98.489 Y154.546 E3.33783
G1 X97.394 Y153.884 E3.36336
G1 X96.542 Y153.333 E3.38361
G1 X96.318 Y153.182 E3.389
G1 X95.286 Y152.458 E3.41416
G1 X94.469 Y151.848 E3.43451
G1 X94.262 Y151.687 E3.43974
G1 X93.26 Y150.88 E3.46541
G1 X92.298 Y150.047 E3.49081
G1 X91.361 Y149.179 E3.5163
G1 X90.458 Y148.284 E3.54167
G1 X89.582 Y147.358 E3.56711
G1 X88.904 Y146.595 E3.58748
G1 X88.728 Y146.389 E3.59288
G1 X87.925 Y145.413 E3.61811
G1 X87.14 Y144.393 E3.64379
G1 X86.406 Y143.368 E3.66895
G1 X85.689 Y142.293 E3.69474
G1 X85.017 Y141.205 E3.72026
G1 X84.39 Y140.108 E3.74547
G1 X83.787 Y138.969 E3.77119
G1 X83.238 Y137.838 E3.79628
G1 X82.824 Y136.921 E3.81636
G1 X82.719 Y136.676 E3.82168
G1 X82.226 Y135.464 E3.84779
G1 X81.79 Y134.267 E3.87321
G1 X81.396 Y133.064 E3.89847
G1 X81.037 Y131.832 E3.92408
G1 X80.726 Y130.613 E3.94919
G1 X80.505 Y129.63 E3.96929
G1 X80.449 Y129.356 E3.97488
G1 X80.218 Y128.103 E4.0003
G1 X80.027 Y126.83 E4.02599
G1 X79.882 Y125.567 E4.05136
G1 X79.779 Y124.304 E4.07665
G1 X79.718 Y123.019 E4.10232
G1 X79.701 Y121.749 E4.12767
G1 X79.727 Y120.478 E4.15304
G1 X79.796 Y119.19 E4.17878
G1 X79.908 Y117.919 E4.20424
G1 X80.064 Y116.653 E4.2297
G1 X80.26 Y115.402 E4.25497
G1 X80.502 Y114.136 E4.28069
G1 X80.783 Y112.897 E4.30604
G1 X81.107 Y111.662 E4.33152
G1 X81.471 Y110.444 E4.35689
G1 X81.876 Y109.238 E4.38228
G1 X82.226 Y108.289 E4.40246
G1 X82.33 Y108.023 E4.40816
G1 X82.816 Y106.85 E4.4335
G1 X83.341 Y105.691 E4.45889
G1 X83.908 Y104.544 E4.48442
G1 X84.38 Y103.657 E4.50448
G1 X84.517 Y103.411 E4.5101
G1 X85.152 Y102.322 E4.53525
G1 X85.834 Y101.235 E4.56086
G1 X86.548 Y100.178 E4.58632
G1 X87.299 Y99.145 E4.6118
G1 X88.084 Y98.138 E4.63728
G1 X88.903 Y97.157 E4.66279
G1 X89.751 Y96.209 E4.68817
G1 X90.637 Y95.281 E4.71377
G1 X91.554 Y94.387 E4.73933
G0 F6000 X91.825 Y94.681
G1 F1200 X92.752 Y93.835 E4.76437
G1 X93.71 Y93.018 E4.7895
G1 X94.707 Y92.224 E4.81494
G1 X95.725 Y91.47 E4.84022
G1 X96.754 Y90.759 E4.86518
G1 X97.825 Y90.07 E4.89059
G1 X98.902 Y89.428 E4.91561
G1 X100.01 Y88.817 E4.94086
G1 X101.14 Y88.243 E4.96615
G1 X102.29 Y87.709 E4.99146
G1 X103.448 Y87.217 E5.01657
G1 X104.622 Y86.764 E5.04168
G1 X105.814 Y86.349 E5.06687
G1 X107.033 Y85.971 E5.09234
G1 X108.248 Y85.639 E5.11747
G1 X109.464 Y85.35 E5.14241
G1 X110.719 Y85.095 E5.16797
G1 X111.966 Y84.888 E5.1932
G1 X113.203 Y84.724 E5.2181
G1 X114.464 Y84.6 E5.24338
G1 X115.735 Y84.518 E5.2688
G1 X116.995 Y84.48 E5.29396
G1 X118.253 Y84.484 E5.31906
G1 X119.514 Y84.531 E5.34424
G1 X120.776 Y84.621 E5.36949
G1 X122.034 Y84.752 E5.39473
G1 X123.287 Y84.926 E5.41998
G1 X124.523 Y85.142 E5.44502
G1 X125.773 Y85.402 E5.4705
G1 X126.99 Y85.7 E5.4955
G1 X128.205 Y86.041 E5.52068
G1 X129.412 Y86.424 E5.54595
G1 X130.607 Y86.849 E5.57127
G1 X131.776 Y87.309 E5.59634
G1 X132.938 Y87.812 E5.6216
G1 X134.079 Y88.351 E5.64679
G1 X135.2 Y88.93 E5.67196
G1 X136.313 Y89.552 E5.69741
G1 X137.377 Y90.196 E5.72223
G1 X138.452 Y90.896 E5.74783
G1 X139.473 Y91.612 E5.77271
G1 X140.483 Y92.371 E5.79793
G1 X141.469 Y93.166 E5.8232
G1 X142.428 Y93.995 E5.8485
G1 X143.362 Y94.858 E5.87388
G1 X144.243 Y95.732 E5.89864
G1 X145.119 Y96.657 E5.92407
G1 X145.96 Y97.611 E5.94945
G1 X146.759 Y98.582 E5.97454
G1 X147.527 Y99.579 E5.99965
G1 X148.265 Y100.609 E6.02494
G1 X148.964 Y101.66 E6.05013
G1 X149.631 Y102.737 E6.07541
G1 X150.257 Y103.828 E6.10051
G1 X150.854 Y104.957 E6.126
G1 X151.399 Y106.08 E6.15091
G1 X151.912 Y107.228 E6.176
G1 X152.297 Y108.165 E6.19622
G1 X152.393 Y108.412 E6.20151
G1 X152.828 Y109.6 E6.22675
G1 X153.218 Y110.79 E6.25174
G1 X153.572 Y112.004 E6.27698
G1 X153.885 Y113.225 E6.30213
G1 X154.106 Y114.208 E6.32224
G1 X154.16 Y114.473 E6.32764
G1 X154.386 Y115.701 E6.35255
G1 X154.575 Y116.957 E6.3779
G1 X154.72 Y118.216 E6.40319
G1 X154.821 Y119.465 E6.4282
G1 X154.882 Y120.733 E6.45353
G1 X154.899 Y121.994 E6.4787
G1 X154.874 Y123.253 E6.50383
G1 X154.806 Y124.526 E6.52927
G1 X154.695 Y125.783 E6.55445
G1 X154.541 Y127.035 E6.57963
G1 X154.346 Y128.276 E6.60469
G1 X154.108 Y129.527 E6.63011
G1 X153.889 Y130.509 E6.65019
G1 X153.829 Y130.755 E6.65524
G1 X153.51 Y131.972 E6.68035
G1 X153.149 Y133.18 E6.70551
G1 X152.747 Y134.378 E6.73072
G1 X152.303 Y135.567 E6.75605
G1 X151.819 Y136.738 E6.78134
G1 X151.298 Y137.889 E6.80655
G1 X150.737 Y139.021 E6.83176
G1 X150.138 Y140.137 E6.85704
G1 X149.511 Y141.212 E6.88187
G1 X148.835 Y142.292 E6.9073
G1 X148.125 Y143.342 E6.9326
G1 X147.386 Y144.359 E6.95768
G1 X146.609 Y145.356 E6.98291
G1 X145.794 Y146.331 E7.00827
G1 X144.962 Y147.261 E7.03317
G1 X144.078 Y148.188 E7.05873
G1 X143.179 Y149.064 E7.08378
G1 X142.246 Y149.916 E7.109
G1 X141.291 Y150.732 E7.13406
G1 X140.5 Y151.367 E7.15431
G1 X140.287 Y151.531 E7.15967
G1 X139.283 Y152.275 E7.18461
G1 X138.459 Y152.85 E7.20466
G1 X138.249 Y152.99 E7.2097
G1 X137.173 Y153.683 E7.23524
G1 X136.102 Y154.319 E7.26009
G1 X134.979 Y154.94 E7.2857
G1 X133.862 Y155.505 E7.31068
G1 X132.714 Y156.04 E7.33596
G1 X131.56 Y156.53 E7.36098
G1 X130.371 Y156.991 E7.38643
G1 X129.176 Y157.405 E7.41167
G1 X127.983 Y157.774 E7.43659
G1 X126.754 Y158.112 E7.46202
G1 X125.776 Y158.348 E7.4821
G1 X125.526 Y158.403 E7.48721
G1 X124.281 Y158.654 E7.51255
G1 X123.041 Y158.861 E7.53764
G1 X121.788 Y159.028 E7.56287
G1 X120.542 Y159.15 E7.58785
G1 X119.265 Y159.233 E7.61339
G1 X118.005 Y159.271 E7.63855
G1 X116.746 Y159.267 E7.66367
G1 X115.48 Y159.22 E7.68895
G1 X114.23 Y159.13 E7.71396
G1 X112.962 Y158.998 E7.7394
G1 X111.716 Y158.825 E7.76451
G1 X110.48 Y158.61 E7.78954
G1 X109.23 Y158.349 E7.81503
G1 X108.003 Y158.049 E7.84023
G1 X106.795 Y157.709 E7.86528
G1 X105.581 Y157.325 E7.89069
G1 X104.393 Y156.902 E7.91585
G1 X103.221 Y156.441 E7.94098
G1 X102.059 Y155.937 E7.96626
G1 X100.918 Y155.397 E7.99145
G1 X99.801 Y154.821 E8.01653
G1 X98.695 Y154.203 E8.04182
G1 X97.611 Y153.548 E8.06709
G1 X96.547 Y152.854 E8.09244
G1 X95.526 Y152.138 E8.11733
G1 X94.511 Y151.375 E8.14267
G1 X93.719 Y150.741 E8.16291
G1 X93.521 Y150.576 E8.16806
G1 X92.568 Y149.752 E8.1932
G1 X91.641 Y148.894 E8.21841
G1 X90.747 Y148.008 E8.24352
G1 X89.881 Y147.092 E8.26868
G1 X89.036 Y146.134 E8.29417
G1 X88.241 Y145.168 E8.31914
G1 X87.464 Y144.159 E8.34455
G1 X86.738 Y143.145 E8.36944
G1 X86.168 Y142.297 E8.38983
G1 X86.029 Y142.081 E8.39496
G1 X85.364 Y141.005 E8.4202
G1 X84.742 Y139.92 E8.44516
G1 X84.268 Y139.033 E8.46523
G1 X84.146 Y138.793 E8.4706
G1 X83.603 Y137.673 E8.49544
G1 X83.089 Y136.524 E8.52056
G1 X82.601 Y135.325 E8.54639
G1 X82.17 Y134.142 E8.57152
G1 X81.779 Y132.951 E8.59653
G1 X81.492 Y131.98 E8.61674
G1 X81.424 Y131.732 E8.62187
G1 X81.116 Y130.525 E8.64673
G1 X80.895 Y129.542 E8.66684
G1 X80.842 Y129.282 E8.67213
G1 X80.613 Y128.042 E8.69729
G1 X80.424 Y126.784 E8.72268
G1 X80.28 Y125.533 E8.74781
G1 X80.195 Y124.531 E8.76788
G1 X80.179 Y124.283 E8.77284
G1 X80.118 Y123.012 E8.79823
G1 X80.101 Y121.756 E8.8233
G1 X80.126 Y120.498 E8.84841
G1 X80.194 Y119.224 E8.87387
G1 X80.305 Y117.967 E8.89905
G1 X80.459 Y116.714 E8.92424
G1 X80.653 Y115.476 E8.94925
G1 X80.892 Y114.223 E8.97471
G1 X81.17 Y112.997 E8.99979
G1 X81.491 Y111.775 E9.02501
G1 X81.851 Y110.57 E9.05011
G1 X82.251 Y109.376 E9.07523
G1 X82.601 Y108.427 E9.09542
G1 X82.7 Y108.175 E9.10082
G1 X83.181 Y107.013 E9.12592
G1 X83.7 Y105.867 E9.15103
G1 X84.261 Y104.732 E9.17629
G1 X84.733 Y103.845 E9.19634
G1 X84.863 Y103.612 E9.20167
G1 X85.491 Y102.534 E9.22656
G1 X86.166 Y101.458 E9.25191
G1 X86.873 Y100.412 E9.27711
G1 X87.615 Y99.39 E9.30231
G1 X88.391 Y98.394 E9.32751
G1 X89.202 Y97.423 E9.35275
G1 X90.041 Y96.484 E9.37788
G1 X90.732 Y95.755 E9.39793
G1 X90.918 Y95.567 E9.40321
G1 X91.825 Y94.681 E9.42851
G0 F6000 X92.096 Y94.976
G1 F1200 X93.012 Y94.139 E9.45327
G1 X93.961 Y93.33 E9.47816
G1 X94.946 Y92.544 E9.5033
G1 X95.953 Y91.798 E9.52831
G1 X96.971 Y91.094 E9.55301
G1 X98.031 Y90.413 E9.57816
G1 X99.096 Y89.778 E9.6029
G1 X100.193 Y89.173 E9.6279
G1 X101.31 Y88.605 E9.65291
G1 X102.447 Y88.077 E9.67793
G1 X103.593 Y87.59 E9.70278
G1 X104.755 Y87.141 E9.72764
G1 X105.934 Y86.731 E9.75255
G1 X107.14 Y86.356 E9.77775
G1 X108.342 Y86.028 E9.80261
G1 X109.545 Y85.742 E9.82729
G1 X110.786 Y85.49 E9.85256
G1 X112.02 Y85.284 E9.87753
G1 X113.244 Y85.122 E9.90217
G1 X114.491 Y84.999 E9.92717
G1 X115.748 Y84.918 E9.95231
G1 X116.995 Y84.88 E9.97721
G1 X118.24 Y84.884 E10.00205
G1 X119.487 Y84.93 E10.02695
G1 X120.736 Y85.018 E10.05194
G1 X121.98 Y85.148 E10.0769
G1 X123.219 Y85.32 E10.10186
G1 X124.443 Y85.534 E10.12666
G1 X125.679 Y85.791 E10.15185
G1 X126.883 Y86.086 E10.17659
G1 X128.085 Y86.423 E10.2015
G1 X129.279 Y86.802 E10.2265
G1 X130.462 Y87.221 E10.25155
G1 X131.619 Y87.676 E10.27636
G1 X132.768 Y88.174 E10.30135
G1 X133.896 Y88.707 E10.32625
G1 X135.006 Y89.279 E10.35117
G1 X136.107 Y89.895 E10.37634
G1 X137.16 Y90.532 E10.4009
G1 X138.224 Y91.224 E10.42623
G1 X139.234 Y91.933 E10.45086
G1 X140.233 Y92.684 E10.4758
G1 X141.208 Y93.47 E10.50079
G1 X142.158 Y94.29 E10.52583
G1 X143.081 Y95.143 E10.55091
G1 X143.954 Y96.008 E10.57544
G1 X144.82 Y96.923 E10.60058
G1 X145.652 Y97.866 E10.62568
G1 X146.443 Y98.827 E10.65052
G1 X147.202 Y99.814 E10.67536
G1 X147.933 Y100.832 E10.70037
G1 X148.625 Y101.871 E10.72529
G1 X149.285 Y102.937 E10.75031
G1 X149.904 Y104.016 E10.77513
G1 X150.495 Y105.132 E10.80033
G1 X151.034 Y106.244 E10.82499
G1 X151.542 Y107.38 E10.84983
G1 X152.018 Y108.551 E10.87505
G1 X152.448 Y109.726 E10.90002
G1 X152.834 Y110.904 E10.92476
G1 X153.185 Y112.104 E10.94971
G1 X153.495 Y113.313 E10.97462
G1 X153.716 Y114.296 E10.99472
G1 X153.767 Y114.546 E10.99982
G1 X153.99 Y115.762 E11.02449
G1 X154.177 Y117.004 E11.04955
G1 X154.321 Y118.25 E11.07458
G1 X154.422 Y119.485 E11.09931
G1 X154.482 Y120.74 E11.12438
G1 X154.499 Y121.987 E11.14927
G1 X154.474 Y123.233 E11.17414
G1 X154.407 Y124.493 E11.19932
G1 X154.298 Y125.736 E11.22422
G1 X154.146 Y126.974 E11.24911
G1 X153.953 Y128.203 E11.27394
G1 X153.717 Y129.44 E11.29907
G1 X153.442 Y130.654 E11.32391
G1 X153.126 Y131.858 E11.34875
G1 X152.769 Y133.054 E11.37366
G1 X152.372 Y134.239 E11.3986
G1 X151.933 Y135.416 E11.42367
G1 X151.454 Y136.574 E11.44868
G1 X150.939 Y137.713 E11.47362
G1 X150.384 Y138.833 E11.49857
G1 X149.791 Y139.936 E11.52356
G1 X149.172 Y141 E11.54812
G1 X148.503 Y142.069 E11.57329
G1 X147.8 Y143.108 E11.59832
G1 X147.069 Y144.115 E11.62316
G1 X146.301 Y145.101 E11.6481
G1 X145.496 Y146.065 E11.67316
G1 X144.671 Y146.986 E11.69784
G1 X143.797 Y147.903 E11.72312
G1 X142.908 Y148.77 E11.7479
G1 X141.986 Y149.613 E11.77283
G1 X141.04 Y150.42 E11.79764
G1 X140.048 Y151.21 E11.82295
G1 X139.054 Y151.947 E11.84764
G1 X138.032 Y152.655 E11.87245
G1 X137.182 Y153.206 E11.89267
G1 X136.967 Y153.339 E11.89771
G1 X135.907 Y153.97 E11.92233
G1 X135.023 Y154.463 E11.94253
G1 X134.797 Y154.583 E11.94764
G1 X133.692 Y155.143 E11.97236
